icons/entity/icon_contactless-on_xl_black.svg

<?xml version="1.0" encoding="UTF-8"?>
<svg width="36px" height="36px" viewBox="0 0 36 36" version="1.1" xmlns="http://www.w3.org/2000/svg" xmlns:xlink="http://www.w3.org/1999/xlink">
    <!-- Generator: Sketch 48.2 (47327) - http://www.bohemiancoding.com/sketch -->
    <title>icon_contactless_on_xl_black</title>
    <desc>Created with Sketch.</desc>
    <defs></defs>
    <g id="NFC-applepay-assets" stroke="none" stroke-width="1" fill="none" fill-rule="evenodd" transform="translate(-64.000000, -240.000000)">
        <g id="icon_contactless_on__xl__white" transform="translate(64.000000, 240.000000)">
            <g id="icon__menu_mode_check.menu_theme_alfa__s__white" transform="translate(15.000000, 29.000000)" fill="#0B1F35">
                <g id="art">
                    <polygon id="Shape" points="1.21960567 2.94690025 0.48875 3.50763237 3.08052391 6.88615092 7.36125 1.30769538 6.63039433 0.746349084 3.08052391 5.37223559"></polygon>
                </g>
            </g>
            <path d="M24.5152981,32.3770707 C30.0981838,30.1075429 34,24.9380112 34,18.5 C34,9.93958638 27.0604136,3 18.5,3 C9.93958638,3 3,9.93958638 3,18.5 C3,24.9590816 6.95080506,30.1366125 12.5676672,32.3926902" id="Oval-168" stroke="#0B1F35"></path>
            <path d="M12.1332146,21.3608803 C11.9440245,21.2820058 11.7281429,21.0225326 11.6638485,20.7969111 C11.5923357,20.5448853 11.6509225,20.3448218 11.9347916,19.874114 C12.2999101,19.2686766 12.3850205,18.9438696 12.3850205,18.1525863 C12.3850205,17.3614723 12.2999101,17.0364961 11.9347916,16.4310586 C11.811071,16.2259174 11.6868468,15.9799848 11.6586445,15.8846923 C11.5409673,15.4855809 11.8708329,14.9965932 12.3136755,14.9128103 C12.6892019,14.8417218 12.9470511,15.010811 13.292193,15.5541306 C14.2916943,17.1270494 14.2915265,19.2285623 13.2916894,20.7882789 C12.9389933,21.3385381 12.5456726,21.5330161 12.1332146,21.3608803 Z M15.0234421,22.8576327 C14.7847302,22.7491381 14.5792566,22.4945734 14.5233557,22.2379776 C14.489278,22.081752 14.5480327,21.9087699 14.8312303,21.330583 C15.8715242,19.2060509 15.8827716,17.1598855 14.8654759,15.0849462 C14.4187724,14.1734894 14.4090359,13.9922136 14.7867446,13.6327087 C14.9732488,13.4554951 15.0524837,13.424013 15.3143618,13.424013 C15.7535112,13.424013 15.9813116,13.6465878 16.3739608,14.4595362 C16.9776234,15.7098484 17.2247289,16.7946258 17.2227144,18.1844069 C17.2205321,19.6129482 16.9895422,20.5936317 16.3445835,21.912155 C15.9751004,22.6670477 15.7926251,22.8664342 15.4228062,22.9175502 C15.3099972,22.933122 15.1303757,22.9060407 15.0234421,22.8576327 Z M18.1209898,24.4644032 C17.7345518,24.3510001 17.4558866,23.8730142 17.5676884,23.5148633 C17.5947156,23.428203 17.7766873,23.0289223 17.9717529,22.6274413 C18.7983475,20.9279171 19.1421465,19.1060192 18.9737723,17.3172959 C18.8352791,15.8474555 18.5739046,14.9205962 17.915852,13.5643282 C17.4743524,12.6543948 17.4538722,12.5134025 17.7105463,12.146958 C17.9546301,11.7986241 18.5640002,11.7420918 18.8839615,12.038294 C19.1058864,12.2434353 19.7958344,13.6961806 20.0620772,14.5187766 C20.9433976,17.2414681 20.8089333,20.164223 19.6795001,22.8390143 C19.1008503,24.2089922 18.6946035,24.6326461 18.1209898,24.4644032 Z M21.1246978,26.0486623 C20.8727241,25.9752042 20.617393,25.6729086 20.5636744,25.3844922 C20.5287573,25.1966153 20.5713965,25.066117 20.8384785,24.5453088 C21.9175505,22.4405799 22.3865809,20.5037555 22.3865809,18.1527556 C22.3865809,15.8806301 21.9712691,14.1128949 20.9398723,11.9939483 C20.7182832,11.5391509 20.5371509,11.116851 20.5371509,11.0557487 C20.5371509,10.8302965 20.7243265,10.5034584 20.9269463,10.3751605 C21.2047721,10.1994702 21.6702772,10.2323064 21.8932093,10.4432024 C21.9788233,10.5244465 22.2014196,10.8927528 22.387756,11.2617363 C23.125715,12.7229445 23.631509,14.3261605 23.8811325,15.9947103 C24.0357413,17.0275254 24.0664616,18.9846609 23.9430768,19.9299693 C23.7152764,21.6740084 23.2586685,23.2300013 22.52776,24.7545122 C22.0859247,25.6759552 21.8086025,26.0550941 21.5764375,26.0550941 C21.5299374,26.0550941 21.4542278,26.066773 21.4080633,26.0811599 C21.3617311,26.0952084 21.2343173,26.0808214 21.1246978,26.0486623 Z" id="Combined-Shape" fill="#0B1F35"></path>
        </g>
    </g>
</svg>

<svg xmlns="http://www.w3.org/2000/svg" width="36" height="36" viewBox="0 0 36 36"><g fill="none" fill-rule="evenodd"><path fill="#0B1F35" d="M16.22 31.947l-.731.56 2.592 3.38 4.28-5.58-.73-.56-3.55 4.625z"/><path stroke="#0B1F35" d="M24.515 32.377C30.098 30.107 34 24.938 34 18.5 34 9.94 27.06 3 18.5 3 9.94 3 3 9.94 3 18.5c0 6.46 3.95 11.637 9.568 13.893"/><path fill="#0B1F35" d="M12.133 21.36c-.189-.078-.405-.337-.47-.563-.07-.252-.012-.452.272-.923.365-.605.45-.93.45-1.721 0-.792-.085-1.117-.45-1.722a3.402 3.402 0 0 1-.276-.546c-.118-.4.212-.888.655-.972.375-.071.633.098.978.641 1 1.573 1 3.675 0 5.234-.353.55-.746.745-1.159.573zm2.89 1.498a.942.942 0 0 1-.5-.62c-.034-.156.025-.33.308-.907 1.04-2.125 1.052-4.171.034-6.246-.446-.912-.456-1.093-.078-1.452.186-.178.265-.209.527-.209.44 0 .667.223 1.06 1.036.604 1.25.85 2.335.849 3.724-.002 1.429-.233 2.41-.878 3.728-.37.755-.552.954-.922 1.006a.86.86 0 0 1-.4-.06zm3.098 1.606c-.386-.113-.665-.591-.553-.95.027-.086.209-.485.404-.887.826-1.7 1.17-3.521 1.002-5.31-.139-1.47-.4-2.396-1.058-3.753-.442-.91-.462-1.05-.205-1.417.244-.348.853-.405 1.173-.109.222.205.912 1.658 1.178 2.48.881 2.723.747 5.646-.382 8.321-.58 1.37-.985 1.794-1.559 1.625zm3.004 1.585c-.252-.074-.508-.376-.561-.665-.035-.187.007-.318.274-.839 1.08-2.104 1.549-4.041 1.549-6.392 0-2.272-.416-4.04-1.447-6.16-.222-.454-.403-.876-.403-.937 0-.226.187-.553.39-.68.278-.177.743-.144.966.067.086.081.308.45.495.819a15.645 15.645 0 0 1 1.493 4.733c.155 1.033.185 2.99.062 3.935a15.574 15.574 0 0 1-1.415 4.825c-.442.921-.72 1.3-.952 1.3a.68.68 0 0 0-.168.026.686.686 0 0 1-.283-.032z"/></g></svg>
